source/icons/cat-going.svg

<svg width="140" height="140" viewBox="0 0 140 140" xmlns="http://www.w3.org/2000/svg">
<circle cx="70" cy="70" r="50" fill="#68B738"/>
<path d="M124.118 45.7569C125.273 43.9199 126.807 42.3515 128.618 41.1569C129.618 40.4569 130.218 40.4569 130.818 41.7569C131.618 43.6569 132.318 45.6569 131.718 47.7569C131.609 48.113 131.588 48.4904 131.658 48.8564C131.728 49.2223 131.886 49.5658 132.118 49.8569C132.718 50.6569 133.218 51.4569 133.718 52.1569C134.399 53.0206 134.84 54.0482 134.998 55.1364C135.156 56.2246 135.025 57.3352 134.618 58.3569C134.251 59.3487 134.182 60.4261 134.418 61.4569C134.618 62.4469 134.618 63.4668 134.418 64.4569C134.337 65.1983 134.037 65.8987 133.556 66.4688C133.075 67.0388 132.435 67.4524 131.718 67.6569C130.439 67.9002 129.298 68.6137 128.518 69.6569C128.424 69.8105 128.291 69.9372 128.134 70.0247C127.976 70.1123 127.799 70.1578 127.618 70.1569C126.418 70.3569 123.418 67.6569 123.418 66.4569V65.8569C123.518 62.2569 123.318 61.9569 120.018 60.4569C119.328 60.2133 118.709 59.8007 118.218 59.2569C117.618 58.4569 116.818 58.5569 115.918 58.8569C115.018 59.1569 114.518 59.7569 114.618 60.7569C114.92 63.1777 115.02 65.6194 114.918 68.0569C114.925 68.335 114.993 68.6083 115.118 68.8569C118.218 73.3569 119.418 78.6569 120.918 83.7569C122.118 87.6569 124.318 89.7569 128.318 90.0569C128.958 90.1079 129.594 90.2082 130.218 90.3569C131.04 90.4889 131.803 90.8644 132.41 91.4349C133.016 92.0054 133.437 92.7445 133.618 93.5569C134.318 95.6569 133.918 96.1569 131.818 96.1569H125.318C124.477 96.1994 123.652 95.9125 123.018 95.3569C122.006 94.5027 120.856 93.8265 119.618 93.3569C118.249 92.8516 117.065 91.9455 116.218 90.7569C115.047 89.1203 113.706 87.612 112.218 86.2569C109.418 83.3569 106.418 80.5569 103.818 77.5569C101.839 75.5127 100.697 72.8012 100.618 69.9569C100.618 69.0569 100.418 68.6569 99.4182 69.0569C99.1188 69.2468 98.7728 69.3506 98.4182 69.3569C95.6182 69.3569 94.2182 71.0569 93.2182 73.5569C92.3182 75.6569 91.1182 77.6569 90.0182 79.7569C89.3945 81.0714 89.0538 82.5023 89.0182 83.9569C89.0182 86.3569 89.6182 87.1569 91.8182 87.9569C93.2182 88.4569 94.5182 88.9569 95.2182 90.3569C96.0182 91.9569 95.8182 92.3569 94.1182 92.4569H87.3182C86.9262 92.4957 86.5319 92.4104 86.191 92.213C85.8501 92.0156 85.5798 91.7162 85.4182 91.3569L83.6182 88.3569C83.0876 87.5741 82.7479 86.6779 82.6264 85.7401C82.5048 84.8023 82.6048 83.849 82.9182 82.9569C83.351 81.2204 83.3852 79.4084 83.0182 77.6569C82.7662 76.437 82.7879 75.1764 83.0819 73.9659C83.3758 72.7554 83.9347 71.6252 84.7182 70.6569C85.3182 69.9569 85.3182 69.6569 84.3182 69.4569C80.2291 68.5882 76.2649 67.2108 72.5182 65.3569C72.4917 65.3569 72.4663 65.3463 72.4475 65.3276C72.4288 65.3088 72.4182 65.2834 72.4182 65.2569C69.2182 64.0569 68.6182 64.2569 67.7182 67.5569C66.9182 70.3569 66.1182 73.1569 65.5182 76.0569C64.8182 79.2569 65.6182 82.2569 66.6182 85.2569C67.0182 86.4569 68.2182 86.3569 69.1182 86.6569C71.1182 87.2569 72.8182 88.0569 73.6182 90.1569C74.3182 91.7569 74.2182 91.9569 72.5182 91.9569C70.8182 91.9569 69.1182 91.8569 67.3182 91.9569C65.7993 91.9844 64.3169 91.4902 63.1182 90.5569C58.3182 87.3569 56.9182 82.4569 56.5182 77.1569C56.3182 73.8569 54.5182 71.2569 52.4182 68.7569C52.0182 68.2569 51.6182 68.0569 51.0182 68.4569C48.8717 69.6404 46.6307 70.6439 44.3182 71.4569C39.4925 73.1608 35.2579 76.2153 32.1182 80.2569C30.9459 81.7318 30.1866 83.4919 29.9182 85.3569C29.6182 87.1569 30.1182 87.9569 31.9182 88.4569C33.7182 88.9569 34.6182 89.9569 34.8182 91.8569C34.9182 92.6569 34.6182 93.0569 33.8182 93.0569H25.7182C25.4531 93.0381 25.1965 92.9555 24.9702 92.8162C24.7438 92.6769 24.5545 92.485 24.4182 92.2569C23.1621 90.7016 22.4899 88.7558 22.5182 86.7569C22.4658 83.3018 22.7673 79.8505 23.4182 76.4569C23.5517 75.4405 23.9311 74.4721 24.5236 73.6357C25.1161 72.7992 25.9038 72.12 26.8182 71.6569C32.7182 68.8569 35.8182 63.5569 38.6182 58.0569C39.2182 56.9569 38.7182 56.7569 37.7182 56.8569C34.9196 57.2454 32.2679 58.3474 30.0182 60.0569C27.0724 62.2057 24.2975 64.5795 21.7182 67.1569C18.9679 69.9505 15.3209 71.6855 11.4182 72.0569C4.11823 72.4569 0.71823 68.3569 1.01823 61.7569C1.08529 59.5065 1.93388 57.3496 3.41823 55.6569C3.93425 54.9879 4.63796 54.4878 5.4395 54.2207C6.24103 53.9535 7.10401 53.9313 7.91823 54.1569C9.41823 54.5569 9.81823 55.3569 9.21823 56.8569C8.91823 57.4569 8.51823 57.9569 8.21823 58.5569C7.78683 59.1698 7.44975 59.844 7.21823 60.5569C6.11823 63.5569 7.61823 65.6569 10.7182 65.9569C14.0182 66.2569 16.7182 64.8569 19.2182 62.8569C22.2302 60.4451 24.9189 57.6555 27.2182 54.5569C28.9375 52.2943 31.1023 50.4081 33.5791 49.015C36.0558 47.6218 38.7918 46.7512 41.6182 46.4569C43.9182 46.1569 45.9182 45.1569 48.1182 44.5569C52.2327 43.3025 56.5172 42.6952 60.8182 42.7569C62.8103 42.8398 64.7948 42.4634 66.6182 41.6569C71.5182 39.6569 76.6182 39.6569 81.7182 40.6569C85.7182 41.4569 89.7182 42.4569 93.6182 43.4569C95.9392 43.8893 98.3257 43.8211 100.618 43.2569C105.007 42.1444 109.496 41.4744 114.018 41.2569C116.981 41.1127 119.933 41.6964 122.618 42.9569C124.618 43.8569 124.618 43.8569 124.118 45.7569Z" fill="black"/>
</svg>

<svg xmlns="http://www.w3.org/2000/svg" viewBox="0 0 140 140"><circle cx="70" cy="70" r="50" fill="#68B738"/><path d="M124.12 45.76a15.2 15.2 0 0 1 4.5-4.6c1-.7 1.6-.7 2.2.6.8 1.9 1.5 3.9.9 6a2.29 2.29 0 0 0 .4 2.1c.6.8 1.1 1.6 1.6 2.3a6.27 6.27 0 0 1 .9 6.2 5.38 5.38 0 0 0-.2 3.1c.2.99.2 2 0 3a3.75 3.75 0 0 1-2.7 3.2 5.21 5.21 0 0 0-3.2 2 1.05 1.05 0 0 1-.9.5c-1.2.2-4.2-2.5-4.2-3.7v-.6c.1-3.6-.1-3.9-3.4-5.4a4.4 4.4 0 0 1-1.8-1.2c-.6-.8-1.4-.7-2.3-.4-.9.3-1.4.9-1.3 1.9.3 2.42.4 4.86.3 7.3 0 .27.07.55.2.8 3.1 4.5 4.3 9.8 5.8 14.9 1.2 3.9 3.4 6 7.4 6.3.64.05 1.27.15 1.9.3a4.16 4.16 0 0 1 3.4 3.2c.7 2.1.3 2.6-1.8 2.6h-6.5a3.24 3.24 0 0 1-2.3-.8 11.71 11.71 0 0 0-3.4-2 7.26 7.26 0 0 1-3.4-2.6 28.58 28.58 0 0 0-4-4.5c-2.8-2.9-5.8-5.7-8.4-8.7a11.38 11.38 0 0 1-3.2-7.6c0-.9-.2-1.3-1.2-.9-.3.19-.65.3-1 .3-2.8 0-4.2 1.7-5.2 4.2-.9 2.1-2.1 4.1-3.2 6.2a10.4 10.4 0 0 0-1 4.2c0 2.4.6 3.2 2.8 4 1.4.5 2.7 1 3.4 2.4.8 1.6.6 2-1.1 2.1h-6.8a1.88 1.88 0 0 1-1.9-1.1l-1.8-3a6.05 6.05 0 0 1-.7-5.4c.43-1.74.47-3.55.1-5.3a8.42 8.42 0 0 1 1.7-7c.6-.7.6-1-.4-1.2a50.07 50.07 0 0 1-11.87-4.13.1.1 0 0 1-.03-.07c-3.2-1.2-3.8-1-4.7 2.3-.8 2.8-1.6 5.6-2.2 8.5-.7 3.2.1 6.2 1.1 9.2.4 1.2 1.6 1.1 2.5 1.4 2 .6 3.7 1.4 4.5 3.5.7 1.6.6 1.8-1.1 1.8-1.7 0-3.4-.1-5.2 0a6.7 6.7 0 0 1-4.2-1.4c-4.8-3.2-6.2-8.1-6.6-13.4-.2-3.3-2-5.9-4.1-8.4-.4-.5-.8-.7-1.4-.3a44.32 44.32 0 0 1-6.7 3 26.71 26.71 0 0 0-12.2 8.8 10.63 10.63 0 0 0-2.2 5.1c-.3 1.8.2 2.6 2 3.1s2.7 1.5 2.9 3.4c.1.8-.2 1.2-1 1.2h-8.1a1.65 1.65 0 0 1-1.3-.8 8.56 8.56 0 0 1-1.9-5.5c-.05-3.46.25-6.91.9-10.3a6.3 6.3 0 0 1 3.4-4.8c5.9-2.8 9-8.1 11.8-13.6.6-1.1.1-1.3-.9-1.2-2.8.39-5.45 1.49-7.7 3.2a70.62 70.62 0 0 0-8.3 7.1 16.67 16.67 0 0 1-10.3 4.9c-7.3.4-10.7-3.7-10.4-10.3a9.67 9.67 0 0 1 2.4-6.1 4.25 4.25 0 0 1 4.5-1.5c1.5.4 1.9 1.2 1.3 2.7-.3.6-.7 1.1-1 1.7a7.5 7.5 0 0 0-1 2c-1.1 3 .4 5.1 3.5 5.4 3.3.3 6-1.1 8.5-3.1 3.01-2.41 5.7-5.2 8-8.3a20.79 20.79 0 0 1 14.4-8.1c2.3-.3 4.3-1.3 6.5-1.9a41.5 41.5 0 0 1 12.7-1.8 13 13 0 0 0 5.8-1.1c4.9-2 10-2 15.1-1 4 .8 8 1.8 11.9 2.8 2.32.43 4.7.36 7-.2a67.8 67.8 0 0 1 13.4-2c2.96-.15 5.91.44 8.6 1.7 2 .9 2 .9 1.5 2.8Z"/></svg>
